X:1
T:Title
%%score ( 1 2 ) ( 3 4 )
L:1/8
Q:1/4=90
M:3/4
K:F
V:1 treble nm="Midi_20"
V:2 treble 
V:3 bass nm="Midi_20"
V:4 bass 
V:1
"^Bromley (L.M.)""^Jeremiah Clarke\n(1673-1707)" F2 | A4 BG | (F2 A2) c2 | (c3 d) cB | (B2 A2) F2 | %5
 B4 A2 | d4 c2 | (c2 B2) A2 | G4 ||[M:3/4] G2 | _A4 A2 | _d4 c2 | =B4 B2 | c4 d2 | G4 c2 | %15
 (F2 B2) A2 | (AG F2) E2 | F4 |] %18
V:2
 C2 | F4 D2 | (C2 F2) F2 | G4 G2 | (G2 F2) C2 | B,2 F4 | F4 F2 | (F2 G2) F2 | E4 ||[M:3/4] E2 | %10
 F4 F2 | F4 F2 | (FG _A2) GF | (F2 E2) F2 | (F2 E2) _E2 | (D2 =E2) F2 | (D2 C2) C2 | C4 |] %18
V:3
 A,2 | (C2 D2) G,2 | C4 A,2 | G,4 C2 | C4 A,2 | (F,3 G,) A,2 | B,4 C2 | D4 C2 | C4 || %9
[M:3/4]"^1. My God, and is Thy table spread?\nAnd does thy cup with love o'erflow?\nThither be all Thy children led,\n And let them all its sweetness know.\n\n2. Hail, sacred feast, wich Jesus makes,\nRich banquet of His flesh and blood!\nThrice happy he who here partakes\nThat sacred stream, that heavenly food!\n\n3. Why are its emblems all in vain\nBefore unwilling hearts displayed?\nWas not for you the victim slain?\nAre you forbid the children's bread?" C2 | %10
 C4 C2 | B,4 _A,2 | (_A,G, F,2) F,2 | G,4 G,2 | %14
"^4. O let thy table honoured be,\nAnd furnished well with joyful guests;\nAnd may each soul salvation see,\nThat here its sacred pledged tastes.\n\n5. Let crowds approach with hearts prepared,\nWith hearts inflamed let all attend;\nNor when we leaave our Father's board\nThe pleasure or the profit end.\n\n6. Revive Thy dying churches, Lord,\nAnd bid our drooping graces live;\nAnd more, that energy afford\nA Saviour's love alone can give." (G,2 C2) F,2 | %15
 B,4 C2 | (B,2 A,2) G,2 | A,4 |] %18
V:4
 F,2 | (F,2 D,2) B,,2 | (A,,2 F,,2) F,2 | E,4 E,2 | F,4 F,E, | D,4 C,2 | (B,,2 B,2) A,2 | %7
 (D,2 E,2) F,2 | C,4 ||[M:3/4] C,2 | F,4 F,2 | B,,4 C,2 | _D,4 D,2 | C,4 =B,,2 | C,4 A,,2 | %15
 (B,,2 G,,2) F,,2 | (B,,2 C,2) C,2 | F,,4 |] %18

